X:179
T: Waise und Stiefmutter
N: Q0116F
O: Mitteleuropa, Deutschland (DDR) , Sachsen
R: Ballade, Waise, boese Stiefmutter, Klage am Grab, Geist
M: 6/8
L: 1/16
K: G
D2 | G4G2G2F2G2 | A4z6
DD | A4A2A2G2A2 | B4z6
D2 | c4c2B2A2B2 | c4z6
c2 | B4G2A4F2 | G4z6

